svgs/thin/chart-mixed.svg

<svg xmlns="http://www.w3.org/2000/svg" viewBox="0 0 576 512"><!-- Font Awesome Pro 6.0.0-alpha2 by @fontawesome - https://fontawesome.com License - https://fontawesome.com/license (Commercial License) --><path d="M64 352H32C14.326 352 0 366.326 0 384V480C0 497.672 14.326 512 32 512H64C81.674 512 96 497.672 96 480V384C96 366.326 81.674 352 64 352ZM80 480C80 488.822 72.822 496 64 496H32C23.178 496 16 488.822 16 480V384C16 375.178 23.178 368 32 368H64C72.822 368 80 375.178 80 384V480ZM224 192H192C174.326 192 160 206.326 160 224V480C160 497.672 174.326 512 192 512H224C241.674 512 256 497.672 256 480V224C256 206.326 241.674 192 224 192ZM240 480C240 488.822 232.822 496 224 496H192C183.178 496 176 488.822 176 480V224C176 215.178 183.178 208 192 208H224C232.822 208 240 215.178 240 224V480ZM384 320H352C334.326 320 320 334.326 320 352V480C320 497.672 334.326 512 352 512H384C401.674 512 416 497.672 416 480V352C416 334.326 401.674 320 384 320ZM400 480C400 488.822 392.822 496 384 496H352C343.178 496 336 488.822 336 480V352C336 343.178 343.178 336 352 336H384C392.822 336 400 343.178 400 352V480ZM544 192H512C494.326 192 480 206.326 480 224V480C480 497.672 494.326 512 512 512H544C561.674 512 576 497.672 576 480V224C576 206.326 561.674 192 544 192ZM560 480C560 488.822 552.822 496 544 496H512C503.178 496 496 488.822 496 480V224C496 215.178 503.178 208 512 208H544C552.822 208 560 215.178 560 224V480ZM496.188 83.699C504.672 91.264 515.738 96 528 96C554.51 96 576 74.51 576 48S554.51 0 528 0S480 21.49 480 48C480 56.455 482.375 64.281 486.213 71.18L399.812 140.301C391.328 132.736 380.262 128 368 128S344.672 132.736 336.188 140.301L249.787 71.18C253.625 64.281 256 56.455 256 48C256 21.49 234.51 0 208 0S160 21.49 160 48C160 58.363 163.359 67.898 168.943 75.744L75.744 168.943C67.898 163.359 58.363 160 48 160C21.49 160 0 181.49 0 208S21.49 256 48 256S96 234.51 96 208C96 197.637 92.641 188.102 87.057 180.256L180.256 87.057C188.102 92.641 197.637 96 208 96C220.262 96 231.328 91.264 239.811 83.699L326.213 152.82C322.375 159.719 320 167.545 320 176C320 202.51 341.49 224 368 224S416 202.51 416 176C416 167.545 413.625 159.719 409.787 152.82L496.188 83.699ZM528 16C545.645 16 560 30.355 560 48S545.645 80 528 80S496 65.645 496 48S510.355 16 528 16ZM48 240C30.355 240 16 225.645 16 208S30.355 176 48 176S80 190.355 80 208S65.645 240 48 240ZM208 80C190.355 80 176 65.645 176 48S190.355 16 208 16S240 30.355 240 48S225.645 80 208 80ZM368 208C350.355 208 336 193.645 336 176S350.355 144 368 144S400 158.355 400 176S385.645 208 368 208Z"/></svg>

<svg xmlns="http://www.w3.org/2000/svg" viewBox="0 0 576 512"><!--! Font Awesome Pro 6.0.0-alpha3 by @fontawesome - https://fontawesome.com License - https://fontawesome.com/license (Commercial License) --><path d="M64 352H32c-17.67 0-32 14.33-32 32v96c0 17.67 14.33 32 32 32h32c17.67 0 32-14.33 32-32v-96C96 366.3 81.67 352 64 352zM80 480c0 8.822-7.178 16-16 16H32c-8.822 0-16-7.178-16-16v-96c0-8.822 7.178-16 16-16h32c8.822 0 16 7.178 16 16V480zM224 192H192C174.3 192 160 206.3 160 224v256c0 17.67 14.33 32 32 32h32c17.67 0 32-14.33 32-32V224C256 206.3 241.7 192 224 192zM240 480c0 8.822-7.178 16-16 16H192c-8.822 0-16-7.178-16-16V224c0-8.822 7.178-16 16-16h32c8.822 0 16 7.178 16 16V480zM384 320h-32c-17.67 0-32 14.33-32 32v128c0 17.67 14.33 32 32 32h32c17.67 0 32-14.33 32-32v-128C416 334.3 401.7 320 384 320zM400 480c0 8.822-7.178 16-16 16h-32c-8.822 0-16-7.178-16-16v-128c0-8.822 7.178-16 16-16h32c8.822 0 16 7.178 16 16V480zM544 192h-32c-17.67 0-32 14.33-32 32v256c0 17.67 14.33 32 32 32h32c17.67 0 32-14.33 32-32V224C576 206.3 561.7 192 544 192zM560 480c0 8.822-7.178 16-16 16h-32c-8.822 0-16-7.178-16-16V224c0-8.822 7.178-16 16-16h32c8.822 0 16 7.178 16 16V480zM496.2 83.7C504.7 91.26 515.7 96 528 96C554.5 96 576 74.51 576 48S554.5 0 528 0S480 21.49 480 48c0 8.455 2.375 16.28 6.213 23.18l-86.4 69.12C391.3 132.7 380.3 128 368 128s-23.33 4.736-31.81 12.3L249.8 71.18C253.6 64.28 256 56.46 256 48C256 21.49 234.5 0 208 0S160 21.49 160 48c0 10.36 3.359 19.9 8.943 27.74L75.74 168.9C67.9 163.4 58.36 160 48 160C21.49 160 0 181.5 0 208S21.49 256 48 256S96 234.5 96 208c0-10.36-3.359-19.9-8.943-27.74L180.3 87.06C188.1 92.64 197.6 96 208 96c12.26 0 23.33-4.736 31.81-12.3l86.4 69.12C322.4 159.7 320 167.5 320 176C320 202.5 341.5 224 368 224S416 202.5 416 176c0-8.455-2.375-16.28-6.213-23.18L496.2 83.7zM528 16c17.64 0 32 14.36 32 32s-14.36 32-32 32s-32-14.36-32-32S510.4 16 528 16zM48 240c-17.64 0-32-14.36-32-32s14.36-32 32-32s32 14.36 32 32S65.64 240 48 240zM208 80c-17.64 0-32-14.36-32-32s14.36-32 32-32s32 14.36 32 32S225.6 80 208 80zM368 208c-17.64 0-32-14.36-32-32s14.36-32 32-32s32 14.36 32 32S385.6 208 368 208z"/></svg>
